icons/wrench.svg

<?xml version="1.0" standalone="no"?><!-- Generator: Gravit.io --><svg xmlns="http://www.w3.org/2000/svg" xmlns:xlink="http://www.w3.org/1999/xlink" width="96" height="96"><path d=" M 62.81391665610607 16.464263460096582 C 59.83036236593727 16.179756320407428 56.84680807576845 16.179756320407428 53.86325378559964 16.748770599785743 C 51.80318058524499 17.10440452439719 49.74310738489034 18.171306298231535 48.18029323289714 19.73609556652191 C 46.759553094721525 21.158631264967696 45.76503499799858 23.15018124279181 45.55192397727224 25.21285800553821 C 45.05466492891077 28.840324036574984 45.409849963454676 32.467790067611745 46.4754050670864 35.95300252880394 C 47.75407119144446 39.79384891460757 46.759553094721525 43.91920244010038 43.91807281837028 46.76427383699196 L 19.765490469384655 70.94738071057044 C 18.34475033120903 72.36991640901623 17.13712121375976 74.14808603207346 16.42675114467194 76.13963600989759 C 16.213640123945602 76.77977707419818 15.992497347133828 78.54990479047338 16.92401019303341 79.48259490124519 C 17.855523038932986 80.41528501201701 19.623416455567096 80.19386275046809 20.26274951774613 79.98048239570122 C 22.251785711192007 79.26921454647832 24.02771088391153 78.0600592027994 25.448451022087156 76.63752350435361 L 49.60103337107277 52.45441663077513 C 52.44251364742402 49.609345233883545 56.633697055042106 48.68469702989377 60.469695428116296 49.964979158494984 C 63.737397745920234 51.10300771725163 67.36028509826806 51.45864164186307 70.91213544370714 51.03188093232933 C 73.04324565097056 50.747373792640175 75.10331885132523 49.68047201880583 76.59509599640964 48.186809535437746 C 78.2289471553116 46.55089348222509 79.36553926585209 44.4170899345564 79.7917613073048 42.14103281704313 C 80.21798334875747 39.29596142015155 80.28902035566625 36.379763238337674 79.93383532112236 33.4635650565238 L 73.75361572005838 39.651595344762995 C 72.26183857497398 41.14525782813108 70.27280238152811 41.998779247198556 68.14169217426468 41.998779247198556 C 66.01058196700123 41.998779247198556 63.8794717597378 41.14525782813108 62.38769461465339 39.651595344762995 L 56.70473406195089 33.96145255097983 C 55.21295691686649 32.467790067611745 54.36051283396111 30.333986519943053 54.36051283396111 28.20018297227437 C 54.36051283396111 26.066379424605678 55.21295691686649 24.07482944678157 56.70473406195089 22.581166963413487 L 62.81391665610607 16.464263460096582 Z  M 67.92858115353832 9.209331398023043 C 62.81391665610607 8.071302839266409 57.69925215867383 7.9290492694218315 52.58458766124158 8.782570688489301 C 48.748589288167395 9.4938385377122 45.26777594963711 11.272008160769442 42.497332680194646 14.045952772738737 C 39.79792641766096 16.748770599785743 38.09303825185022 20.305109845900226 37.524742196579965 24.145956231703863 C 36.88540913440093 28.91145082149727 37.3826681827624 33.81919898113525 38.87444532784681 38.44244000108408 C 39.229630362390715 39.36708820507384 38.94548233475559 40.362863193985895 38.23511226566778 41.07413104320879 L 14.082529916682159 65.25723791678728 C 11.809345695601166 67.53329503430052 10.104457529790423 70.23611286134754 8.967865419249918 73.2234378280837 C 8.186458343253328 75.2861145908301 7.973347322526976 77.49104492342109 8.39956936397968 79.62484847108978 C 8.754754398523573 81.68752523383617 9.749272495246515 83.67907521166028 11.241049640330921 85.17273769502836 C 12.732826785415327 86.66640017839644 14.721862978861203 87.66217516730849 16.78193617921586 88.01780909191994 C 18.913046386479287 88.44456980145368 21.11519360065151 88.2311894466868 23.175266801006167 87.44879481254162 C 26.15882109117497 86.31076625378499 28.858227353708664 84.60372341565004 31.131411574789652 82.32766629813678 L 55.28399392377527 58.144559424558295 C 55.923326985954304 57.5044183602577 56.91784508267724 57.219911220568534 57.77028916558261 57.50441836025769 C 62.387694614653384 59.140334413470356 67.14717407754173 59.63822190792639 71.90665354043007 58.99808084362577 C 75.88472592732182 58.429066564247464 79.50761327966967 56.65089694119021 82.27805654911214 53.87695232922091 C 85.11953682546337 51.03188093232933 86.96649900509169 47.475541686214854 87.60583206727073 43.563568515488925 C 88.52931315708487 38.51356678600636 88.31620213635853 33.321311486679214 87.17961002581802 28.342436542118946 C 87.03753601200047 28.057929402429792 86.24615836341063 25.679727382075534 84.90642580473704 24.643843726159886 Q 82.27976946539223 22.61290825771956 76.45302198259208 25.568491930149655 L 68.07065516735588 33.96145255097983 L 62.387694614653384 28.27130975719666 L 70.77006142988957 19.87834913636648 Q 73.77691870896089 14.096884875152284 71.76457952661251 11.485388515536307 C 70.70158275388823 10.105893335696216 68.28376618808223 9.280458182945328 67.92858115353832 9.209331398023043 Z " fill-rule="evenodd" fill="#454545" stroke="none"/><mask id="_mask_ardntRQnWIESuNShIvgoAdYPvuBvoPAv"><path d=" M 62.81391665610607 16.464263460096582 C 59.83036236593727 16.179756320407428 56.84680807576845 16.179756320407428 53.86325378559964 16.748770599785743 C 51.80318058524499 17.10440452439719 49.74310738489034 18.171306298231535 48.18029323289714 19.73609556652191 C 46.759553094721525 21.158631264967696 45.76503499799858 23.15018124279181 45.55192397727224 25.21285800553821 C 45.05466492891077 28.840324036574984 45.409849963454676 32.467790067611745 46.4754050670864 35.95300252880394 C 47.75407119144446 39.79384891460757 46.759553094721525 43.91920244010038 43.91807281837028 46.76427383699196 L 19.765490469384655 70.94738071057044 C 18.34475033120903 72.36991640901623 17.13712121375976 74.14808603207346 16.42675114467194 76.13963600989759 C 16.213640123945602 76.77977707419818 15.992497347133828 78.54990479047338 16.92401019303341 79.48259490124519 C 17.855523038932986 80.41528501201701 19.623416455567096 80.19386275046809 20.26274951774613 79.98048239570122 C 22.251785711192007 79.26921454647832 24.02771088391153 78.0600592027994 25.448451022087156 76.63752350435361 L 49.60103337107277 52.45441663077513 C 52.44251364742402 49.609345233883545 56.633697055042106 48.68469702989377 60.469695428116296 49.964979158494984 C 63.737397745920234 51.10300771725163 67.36028509826806 51.45864164186307 70.91213544370714 51.03188093232933 C 73.04324565097056 50.747373792640175 75.10331885132523 49.68047201880583 76.59509599640964 48.186809535437746 C 78.2289471553116 46.55089348222509 79.36553926585209 44.4170899345564 79.7917613073048 42.14103281704313 C 80.21798334875747 39.29596142015155 80.28902035566625 36.379763238337674 79.93383532112236 33.4635650565238 L 73.75361572005838 39.651595344762995 C 72.26183857497398 41.14525782813108 70.27280238152811 41.998779247198556 68.14169217426468 41.998779247198556 C 66.01058196700123 41.998779247198556 63.8794717597378 41.14525782813108 62.38769461465339 39.651595344762995 L 56.70473406195089 33.96145255097983 C 55.21295691686649 32.467790067611745 54.36051283396111 30.333986519943053 54.36051283396111 28.20018297227437 C 54.36051283396111 26.066379424605678 55.21295691686649 24.07482944678157 56.70473406195089 22.581166963413487 L 62.81391665610607 16.464263460096582 Z  M 67.92858115353832 9.209331398023043 C 62.81391665610607 8.071302839266409 57.69925215867383 7.9290492694218315 52.58458766124158 8.782570688489301 C 48.748589288167395 9.4938385377122 45.26777594963711 11.272008160769442 42.497332680194646 14.045952772738737 C 39.79792641766096 16.748770599785743 38.09303825185022 20.305109845900226 37.524742196579965 24.145956231703863 C 36.88540913440093 28.91145082149727 37.3826681827624 33.81919898113525 38.87444532784681 38.44244000108408 C 39.229630362390715 39.36708820507384 38.94548233475559 40.362863193985895 38.23511226566778 41.07413104320879 L 14.082529916682159 65.25723791678728 C 11.809345695601166 67.53329503430052 10.104457529790423 70.23611286134754 8.967865419249918 73.2234378280837 C 8.186458343253328 75.2861145908301 7.973347322526976 77.49104492342109 8.39956936397968 79.62484847108978 C 8.754754398523573 81.68752523383617 9.749272495246515 83.67907521166028 11.241049640330921 85.17273769502836 C 12.732826785415327 86.66640017839644 14.721862978861203 87.66217516730849 16.78193617921586 88.01780909191994 C 18.913046386479287 88.44456980145368 21.11519360065151 88.2311894466868 23.175266801006167 87.44879481254162 C 26.15882109117497 86.31076625378499 28.858227353708664 84.60372341565004 31.131411574789652 82.32766629813678 L 55.28399392377527 58.144559424558295 C 55.923326985954304 57.5044183602577 56.91784508267724 57.219911220568534 57.77028916558261 57.50441836025769 C 62.387694614653384 59.140334413470356 67.14717407754173 59.63822190792639 71.90665354043007 58.99808084362577 C 75.88472592732182 58.429066564247464 79.50761327966967 56.65089694119021 82.27805654911214 53.87695232922091 C 85.11953682546337 51.03188093232933 86.96649900509169 47.475541686214854 87.60583206727073 43.563568515488925 C 88.52931315708487 38.51356678600636 88.31620213635853 33.321311486679214 87.17961002581802 28.342436542118946 C 87.03753601200047 28.057929402429792 86.24615836341063 25.679727382075534 84.90642580473704 24.643843726159886 Q 82.27976946539223 22.61290825771956 76.45302198259208 25.568491930149655 L 68.07065516735588 33.96145255097983 L 62.387694614653384 28.27130975719666 L 70.77006142988957 19.87834913636648 Q 73.77691870896089 14.096884875152284 71.76457952661251 11.485388515536307 C 70.70158275388823 10.105893335696216 68.28376618808223 9.280458182945328 67.92858115353832 9.209331398023043 Z " fill-rule="evenodd" fill="white" stroke="none"/></mask><path d=" M 62.81391665610607 16.464263460096582 C 59.83036236593727 16.179756320407428 56.84680807576845 16.179756320407428 53.86325378559964 16.748770599785743 C 51.80318058524499 17.10440452439719 49.74310738489034 18.171306298231535 48.18029323289714 19.73609556652191 C 46.759553094721525 21.158631264967696 45.76503499799858 23.15018124279181 45.55192397727224 25.21285800553821 C 45.05466492891077 28.840324036574984 45.409849963454676 32.467790067611745 46.4754050670864 35.95300252880394 C 47.75407119144446 39.79384891460757 46.759553094721525 43.91920244010038 43.91807281837028 46.76427383699196 L 19.765490469384655 70.94738071057044 C 18.34475033120903 72.36991640901623 17.13712121375976 74.14808603207346 16.42675114467194 76.13963600989759 C 16.213640123945602 76.77977707419818 15.992497347133828 78.54990479047338 16.92401019303341 79.48259490124519 C 17.855523038932986 80.41528501201701 19.623416455567096 80.19386275046809 20.26274951774613 79.98048239570122 C 22.251785711192007 79.26921454647832 24.02771088391153 78.0600592027994 25.448451022087156 76.63752350435361 L 49.60103337107277 52.45441663077513 C 52.44251364742402 49.609345233883545 56.633697055042106 48.68469702989377 60.469695428116296 49.964979158494984 C 63.737397745920234 51.10300771725163 67.36028509826806 51.45864164186307 70.91213544370714 51.03188093232933 C 73.04324565097056 50.747373792640175 75.10331885132523 49.68047201880583 76.59509599640964 48.186809535437746 C 78.2289471553116 46.55089348222509 79.36553926585209 44.4170899345564 79.7917613073048 42.14103281704313 C 80.21798334875747 39.29596142015155 80.28902035566625 36.379763238337674 79.93383532112236 33.4635650565238 L 73.75361572005838 39.651595344762995 C 72.26183857497398 41.14525782813108 70.27280238152811 41.998779247198556 68.14169217426468 41.998779247198556 C 66.01058196700123 41.998779247198556 63.8794717597378 41.14525782813108 62.38769461465339 39.651595344762995 L 56.70473406195089 33.96145255097983 C 55.21295691686649 32.467790067611745 54.36051283396111 30.333986519943053 54.36051283396111 28.20018297227437 C 54.36051283396111 26.066379424605678 55.21295691686649 24.07482944678157 56.70473406195089 22.581166963413487 L 62.81391665610607 16.464263460096582 Z  M 67.92858115353832 9.209331398023043 C 62.81391665610607 8.071302839266409 57.69925215867383 7.9290492694218315 52.58458766124158 8.782570688489301 C 48.748589288167395 9.4938385377122 45.26777594963711 11.272008160769442 42.497332680194646 14.045952772738737 C 39.79792641766096 16.748770599785743 38.09303825185022 20.305109845900226 37.524742196579965 24.145956231703863 C 36.88540913440093 28.91145082149727 37.3826681827624 33.81919898113525 38.87444532784681 38.44244000108408 C 39.229630362390715 39.36708820507384 38.94548233475559 40.362863193985895 38.23511226566778 41.07413104320879 L 14.082529916682159 65.25723791678728 C 11.809345695601166 67.53329503430052 10.104457529790423 70.23611286134754 8.967865419249918 73.2234378280837 C 8.186458343253328 75.2861145908301 7.973347322526976 77.49104492342109 8.39956936397968 79.62484847108978 C 8.754754398523573 81.68752523383617 9.749272495246515 83.67907521166028 11.241049640330921 85.17273769502836 C 12.732826785415327 86.66640017839644 14.721862978861203 87.66217516730849 16.78193617921586 88.01780909191994 C 18.913046386479287 88.44456980145368 21.11519360065151 88.2311894466868 23.175266801006167 87.44879481254162 C 26.15882109117497 86.31076625378499 28.858227353708664 84.60372341565004 31.131411574789652 82.32766629813678 L 55.28399392377527 58.144559424558295 C 55.923326985954304 57.5044183602577 56.91784508267724 57.219911220568534 57.77028916558261 57.50441836025769 C 62.387694614653384 59.140334413470356 67.14717407754173 59.63822190792639 71.90665354043007 58.99808084362577 C 75.88472592732182 58.429066564247464 79.50761327966967 56.65089694119021 82.27805654911214 53.87695232922091 C 85.11953682546337 51.03188093232933 86.96649900509169 47.475541686214854 87.60583206727073 43.563568515488925 C 88.52931315708487 38.51356678600636 88.31620213635853 33.321311486679214 87.17961002581802 28.342436542118946 C 87.03753601200047 28.057929402429792 86.24615836341063 25.679727382075534 84.90642580473704 24.643843726159886 Q 82.27976946539223 22.61290825771956 76.45302198259208 25.568491930149655 L 68.07065516735588 33.96145255097983 L 62.387694614653384 28.27130975719666 L 70.77006142988957 19.87834913636648 Q 73.77691870896089 14.096884875152284 71.76457952661251 11.485388515536307 C 70.70158275388823 10.105893335696216 68.28376618808223 9.280458182945328 67.92858115353832 9.209331398023043 Z " fill-rule="evenodd" fill="none" stroke="none" stroke-width="16" mask="url(#_mask_ardntRQnWIESuNShIvgoAdYPvuBvoPAv)"/></svg>

<svg xmlns="http://www.w3.org/2000/svg" width="96" height="96"><path d="M62.814 16.464c-2.984-.284-5.967-.284-8.95.285-2.06.355-4.12 1.422-5.684 2.987-1.42 1.423-2.415 3.414-2.628 5.477-.497 3.627-.142 7.255.923 10.74 1.28 3.84.285 7.966-2.557 10.811L19.765 70.947c-1.42 1.423-2.628 3.201-3.338 5.193-.213.64-.435 2.41.497 3.343.932.932 2.7.71 3.339.497 1.989-.71 3.765-1.92 5.185-3.342l24.153-24.184c2.842-2.845 7.033-3.77 10.869-2.489 3.267 1.138 6.89 1.494 10.442 1.067 2.131-.285 4.191-1.352 5.683-2.845a11.662 11.662 0 0 0 3.197-6.046c.426-2.845.497-5.761.142-8.677l-6.18 6.188c-1.492 1.493-3.481 2.347-5.612 2.347-2.131 0-4.263-.854-5.754-2.347l-5.683-5.69c-1.492-1.494-2.344-3.628-2.344-5.762 0-2.134.852-4.125 2.344-5.619l6.109-6.117zm5.115-7.255c-5.115-1.138-10.23-1.28-15.344-.426-3.836.71-7.317 2.489-10.088 5.263-2.7 2.703-4.404 6.26-4.972 10.1-.64 4.765-.142 9.673 1.35 14.296.355.925.07 1.92-.64 2.632L14.083 65.257c-2.274 2.276-3.979 4.98-5.115 7.966-.782 2.063-.995 4.268-.568 6.402.355 2.063 1.35 4.054 2.841 5.548 1.492 1.493 3.48 2.49 5.54 2.845 2.132.427 4.334.213 6.394-.57 2.984-1.137 5.683-2.844 7.956-5.12l24.153-24.183c.64-.64 1.634-.925 2.486-.64 4.618 1.635 9.377 2.133 14.137 1.493 3.978-.569 7.6-2.347 10.371-5.121 2.842-2.845 4.688-6.401 5.328-10.313.923-5.05.71-10.243-.426-15.222-.142-.284-.934-2.662-2.274-3.698q-2.626-2.031-8.453.924l-8.382 8.393-5.683-5.69 8.382-8.393q3.007-5.781.995-8.393c-1.063-1.38-3.481-2.205-3.836-2.276z" fill-rule="evenodd" fill="#454545"/></svg>
